X: 1
T: St. Croix Jig
C: Keith Murphy
R: jig
Z: 2015 John Chambers <jc:trillian.mit.edu>
M: 6/8
L: 1/8
K: Am
|:\
"Am"A2A GAA | AGA DEG | A2A GAA | "C"cde "G"dcG | "Am"A2A GAA | AGA DEG |
EDC "D"D2D | EDC DEG :: "E"B2B cBA | B3 E3 | DEE DEE | FED E^GA |
"E"B2B cBA | B3 E3 |[1 E^GA Bde | faf edc :|[2 Bde fa^g | fed cdB |]
